assets/1. P-Z/Tumbler glass/Color/Tumbler.Glass-color.svg

<svg width="100%" height="100%" viewBox="0 0 32 32" fill="none" xmlns="http://www.w3.org/2000/svg">
<path d="M27.45 29.95H4.5C3.12 29.95 2 28.83 2 27.45V4.62C2 4.28 2.28 4 2.62 4H29.32C29.66 4 29.94 4.28 29.94 4.62V27.45C29.94 28.83 28.83 29.95 27.45 29.95Z" fill="#C2DBF2"/>
<path d="M27.45 29.95H4.5C3.12 29.95 2 28.83 2 27.45V4.62C2 4.28 2.28 4 2.62 4H29.32C29.66 4 29.94 4.28 29.94 4.62V27.45C29.94 28.83 28.83 29.95 27.45 29.95Z" fill="url(#paint0_radial_18_27445)"/>
<g filter="url(#filter0_f_18_27445)">
<path d="M26.5652 28.5312H5.38401C4.11037 28.5312 3.07669 27.5156 3.07669 26.2643V5.56221C3.07669 5.2539 3.33511 5 3.6489 5H28.2911C28.6049 5 28.8633 5.2539 28.8633 5.56221V26.2643C28.8633 27.5156 27.8389 28.5312 26.5652 28.5312Z" fill="url(#paint1_linear_18_27445)"/>
</g>
<path d="M27.45 9.28125H4.5C3.12 9.28125 2 9.05331 2 8.77246V4.12618C2 4.05698 2.28 4 2.62 4H29.32C29.66 4 29.94 4.05698 29.94 4.12618V8.77246C29.94 9.05331 28.83 9.28125 27.45 9.28125Z" fill="url(#paint2_radial_18_27445)"/>
<path d="M4.56 26.95C3.7 26.95 3 26.26 3 25.4V18.93C3 18.38 3.44 17.94 3.99 17.94H27.95C28.5 17.94 28.94 18.38 28.94 18.93V25.4C28.94 26.26 28.24 26.96 27.38 26.96H4.56V26.95Z" fill="url(#paint3_linear_18_27445)"/>
<path d="M4.56 26.95C3.7 26.95 3 26.26 3 25.4V18.97C3 18.4 3.46 17.94 4.03 17.94H27.91C28.48 17.94 28.94 18.4 28.94 18.97V25.4C28.94 26.26 28.24 26.96 27.38 26.96H4.56V26.95Z" fill="url(#paint4_linear_18_27445)"/>
<path d="M22.632 13H9.44613C8.94763 13 8.54688 13.4375 8.54688 13.9816V17.94H23.5312V13.9816C23.5312 13.4375 23.1305 13 22.632 13Z" fill="url(#paint5_linear_18_27445)"/>
<path d="M22.632 13H9.44613C8.94763 13 8.54688 13.4375 8.54688 13.9816V17.94H23.5312V13.9816C23.5312 13.4375 23.1305 13 22.632 13Z" fill="url(#paint6_linear_18_27445)"/>
<path d="M23.5312 17.94V13.9859C23.5312 13.4393 23.1242 13 22.6179 13H16.8398C16.3335 13 15.9264 13.4393 15.9264 13.9859V17.94H23.5312Z" fill="url(#paint7_linear_18_27445)"/>
<path d="M23.5312 17.94V13.9859C23.5312 13.4393 23.1242 13 22.6179 13H16.8398C16.3335 13 15.9264 13.4393 15.9264 13.9859V17.94H23.5312Z" fill="url(#paint8_linear_18_27445)"/>
<path d="M23.5312 17.94H8.54688V24.08H23.5312V17.94Z" fill="url(#paint9_linear_18_27445)"/>
<rect x="25.4531" y="6.03125" width="2.0625" height="19.8125" rx="1.03125" fill="url(#paint10_linear_18_27445)"/>
<defs>
<filter id="filter0_f_18_27445" x="1.07669" y="3" width="29.7866" height="27.5312" filterUnits="userSpaceOnUse" color-interpolation-filters="sRGB">
<feFlood flood-opacity="0" result="BackgroundImageFix"/>
<feBlend mode="normal" in="SourceGraphic" in2="BackgroundImageFix" result="shape"/>
<feGaussianBlur stdDeviation="1" result="effect1_foregroundBlur_18_27445"/>
</filter>
<radialGradient id="paint0_radial_18_27445" cx="0" cy="0" r="1" gradientUnits="userSpaceOnUse" gradientTransform="translate(15.97 28.6875) rotate(90) scale(5.375 14.47)">
<stop stop-color="#BDF2FF"/>
<stop offset="1" stop-color="#BCF1FF" stop-opacity="0"/>
</radialGradient>
<linearGradient id="paint1_linear_18_27445" x1="3.07669" y1="11.5767" x2="28.8633" y2="11.5767" gradientUnits="userSpaceOnUse">
<stop stop-color="#D0EDFF"/>
<stop offset="0.430875" stop-color="#CCF1FF"/>
<stop offset="0.656283" stop-color="#D5FAFF"/>
<stop offset="0.833215" stop-color="#DBFAFD"/>
<stop offset="1" stop-color="#C7EBFF"/>
</linearGradient>
<radialGradient id="paint2_radial_18_27445" cx="0" cy="0" r="1" gradientUnits="userSpaceOnUse" gradientTransform="translate(22.7812 5.28125) rotate(90) scale(1.03125 10.375)">
<stop stop-color="#DFFFFF"/>
<stop offset="1" stop-color="#DFFFFF" stop-opacity="0"/>
</radialGradient>
<linearGradient id="paint3_linear_18_27445" x1="15.9724" y1="15.584" x2="15.9724" y2="30.5404" gradientUnits="userSpaceOnUse">
<stop stop-color="#FF8C00"/>
<stop offset="1" stop-color="#6A4531"/>
</linearGradient>
<linearGradient id="paint4_linear_18_27445" x1="15.9724" y1="17.94" x2="15.9724" y2="26.96" gradientUnits="userSpaceOnUse">
<stop stop-color="#F4953F"/>
<stop offset="0.0690129" stop-color="#F6A562"/>
<stop offset="0.398142" stop-color="#D28C49"/>
<stop offset="0.599084" stop-color="#B77B43"/>
<stop offset="0.921284" stop-color="#926D3D"/>
<stop offset="1" stop-color="#8C8978"/>
</linearGradient>
<linearGradient id="paint5_linear_18_27445" x1="16.0391" y1="13" x2="16.0391" y2="17.94" gradientUnits="userSpaceOnUse">
<stop stop-color="#3AB8F2"/>
<stop offset="0.0743295" stop-color="#51C1FA"/>
<stop offset="0.158148" stop-color="#4AB5EB"/>
<stop offset="1" stop-color="#449FC2"/>
</linearGradient>
<linearGradient id="paint6_linear_18_27445" x1="16.0391" y1="13" x2="14.875" y2="13" gradientUnits="userSpaceOnUse">
<stop stop-color="#3DC2FF"/>
<stop offset="0.328859" stop-color="#3EB4F0"/>
<stop offset="0.718121" stop-color="#3FABDF" stop-opacity="0"/>
</linearGradient>
<linearGradient id="paint7_linear_18_27445" x1="19.7288" y1="13" x2="19.7288" y2="17.94" gradientUnits="userSpaceOnUse">
<stop stop-color="#88D8FF"/>
<stop offset="0.0743295" stop-color="#84F9FF"/>
<stop offset="0.158148" stop-color="#6BE6FF"/>
<stop offset="0.872975" stop-color="#69DBFF"/>
<stop offset="1" stop-color="#65C7EE"/>
</linearGradient>
<linearGradient id="paint8_linear_18_27445" x1="15.9264" y1="15.1562" x2="16.8437" y2="15.1562" gradientUnits="userSpaceOnUse">
<stop stop-color="#3EBEFA"/>
<stop offset="0.199424" stop-color="#5DD5FF"/>
<stop offset="0.488994" stop-color="#59D0FF" stop-opacity="0"/>
</linearGradient>
<linearGradient id="paint9_linear_18_27445" x1="16.0365" y1="17.94" x2="16.0365" y2="22.9375" gradientUnits="userSpaceOnUse">
<stop stop-color="#978B52"/>
<stop offset="1" stop-color="#CD822C" stop-opacity="0"/>
</linearGradient>
<linearGradient id="paint10_linear_18_27445" x1="26.4844" y1="6.03125" x2="26.4844" y2="25.8438" gradientUnits="userSpaceOnUse">
<stop stop-color="white"/>
<stop offset="1" stop-color="white" stop-opacity="0"/>
</linearGradient>
</defs>
</svg>

<svg width="100%" height="100%" viewBox="0 0 32 32" xmlns="http://www.w3.org/2000/svg"><path fill="#C2DBF2" d="M27.45 29.95H4.5a2.5 2.5 0 0 1-2.5-2.5V4.62c0-.34.28-.62.62-.62h26.7c.34 0 .62.28.62.62v22.83c0 1.38-1.11 2.5-2.49 2.5"/><path fill="url(#a)" d="M27.45 29.95H4.5a2.5 2.5 0 0 1-2.5-2.5V4.62c0-.34.28-.62.62-.62h26.7c.34 0 .62.28.62.62v22.83c0 1.38-1.11 2.5-2.49 2.5"/><g filter="url(#b)"><path fill="url(#c)" d="M26.565 28.531H5.384c-1.274 0-2.307-1.015-2.307-2.267V5.562A.57.57 0 0 1 3.649 5H28.29a.57.57 0 0 1 .572.562v20.702c0 1.252-1.024 2.267-2.298 2.267"/></g><path fill="url(#d)" d="M27.45 9.281H4.5c-1.38 0-2.5-.228-2.5-.509V4.126C2 4.057 2.28 4 2.62 4h26.7c.34 0 .62.057.62.126v4.646c0 .281-1.11.51-2.49.51"/><path fill="url(#e)" d="M4.56 26.95C3.7 26.95 3 26.26 3 25.4v-6.47c0-.55.44-.99.99-.99h23.96c.55 0 .99.44.99.99v6.47c0 .86-.7 1.56-1.56 1.56H4.56z"/><path fill="url(#f)" d="M4.56 26.95C3.7 26.95 3 26.26 3 25.4v-6.43c0-.57.46-1.03 1.03-1.03h23.88c.57 0 1.03.46 1.03 1.03v6.43c0 .86-.7 1.56-1.56 1.56H4.56z"/><path fill="url(#g)" d="M22.632 13H9.446c-.498 0-.9.438-.9.982v3.958h14.985v-3.958c0-.544-.4-.982-.899-.982"/><path fill="url(#h)" d="M22.632 13H9.446c-.498 0-.9.438-.9.982v3.958h14.985v-3.958c0-.544-.4-.982-.899-.982"/><path fill="url(#i)" d="M23.531 17.94v-3.954c0-.547-.407-.986-.913-.986H16.84c-.506 0-.914.44-.914.986v3.954z"/><path fill="url(#j)" d="M23.531 17.94v-3.954c0-.547-.407-.986-.913-.986H16.84c-.506 0-.914.44-.914.986v3.954z"/><path fill="url(#k)" d="M23.531 17.94H8.547v6.14H23.53z"/><rect width="2.063" height="19.813" x="25.453" y="6.031" fill="url(#l)" rx="1.031"/><defs><linearGradient id="c" x1="3.077" x2="28.863" y1="11.577" y2="11.577" gradientUnits="userSpaceOnUse"><stop stop-color="#D0EDFF"/><stop offset=".431" stop-color="#CCF1FF"/><stop offset=".656" stop-color="#D5FAFF"/><stop offset=".833" stop-color="#DBFAFD"/><stop offset="1" stop-color="#C7EBFF"/></linearGradient><linearGradient id="e" x1="15.972" x2="15.972" y1="15.584" y2="30.54" gradientUnits="userSpaceOnUse"><stop stop-color="#FF8C00"/><stop offset="1" stop-color="#6A4531"/></linearGradient><linearGradient id="f" x1="15.972" x2="15.972" y1="17.94" y2="26.96" gradientUnits="userSpaceOnUse"><stop stop-color="#F4953F"/><stop offset=".069" stop-color="#F6A562"/><stop offset=".398" stop-color="#D28C49"/><stop offset=".599" stop-color="#B77B43"/><stop offset=".921" stop-color="#926D3D"/><stop offset="1" stop-color="#8C8978"/></linearGradient><linearGradient id="g" x1="16.039" x2="16.039" y1="13" y2="17.94" gradientUnits="userSpaceOnUse"><stop stop-color="#3AB8F2"/><stop offset=".074" stop-color="#51C1FA"/><stop offset=".158" stop-color="#4AB5EB"/><stop offset="1" stop-color="#449FC2"/></linearGradient><linearGradient id="h" x1="16.039" x2="14.875" y1="13" y2="13" gradientUnits="userSpaceOnUse"><stop stop-color="#3DC2FF"/><stop offset=".329" stop-color="#3EB4F0"/><stop offset=".718" stop-color="#3FABDF" stop-opacity="0"/></linearGradient><linearGradient id="i" x1="19.729" x2="19.729" y1="13" y2="17.94" gradientUnits="userSpaceOnUse"><stop stop-color="#88D8FF"/><stop offset=".074" stop-color="#84F9FF"/><stop offset=".158" stop-color="#6BE6FF"/><stop offset=".873" stop-color="#69DBFF"/><stop offset="1" stop-color="#65C7EE"/></linearGradient><linearGradient id="j" x1="15.926" x2="16.844" y1="15.156" y2="15.156" gradientUnits="userSpaceOnUse"><stop stop-color="#3EBEFA"/><stop offset=".199" stop-color="#5DD5FF"/><stop offset=".489" stop-color="#59D0FF" stop-opacity="0"/></linearGradient><linearGradient id="k" x1="16.037" x2="16.037" y1="17.94" y2="22.938" gradientUnits="userSpaceOnUse"><stop stop-color="#978B52"/><stop offset="1" stop-color="#CD822C" stop-opacity="0"/></linearGradient><linearGradient id="l" x1="26.484" x2="26.484" y1="6.031" y2="25.844" gradientUnits="userSpaceOnUse"><stop stop-color="#fff"/><stop offset="1" stop-color="#fff" stop-opacity="0"/></linearGradient><radialGradient id="a" cx="0" cy="0" r="1" gradientTransform="matrix(0 5.375 -14.47 0 15.97 28.688)" gradientUnits="userSpaceOnUse"><stop stop-color="#BDF2FF"/><stop offset="1" stop-color="#BCF1FF" stop-opacity="0"/></radialGradient><radialGradient id="d" cx="0" cy="0" r="1" gradientTransform="matrix(0 1.03125 -10.375 0 22.781 5.281)" gradientUnits="userSpaceOnUse"><stop stop-color="#DFFFFF"/><stop offset="1" stop-color="#DFFFFF" stop-opacity="0"/></radialGradient><filter id="b" width="29.787" height="27.531" x="1.077" y="3" color-interpolation-filters="sRGB" filterUnits="userSpaceOnUse"><feFlood flood-opacity="0" result="BackgroundImageFix"/><feBlend in="SourceGraphic" in2="BackgroundImageFix" result="shape"/><feGaussianBlur result="effect1_foregroundBlur_18_27445" stdDeviation="1"/></filter></defs></svg>
